X:448
T: Ajiege
N: C2066
O: China, Zhejiang Yuyao
S: III, 611]
R: Xiaodiao]
M: 3/4
L: 1/16
K: C
AA3c2A2G2EGA2z2 | d2d2c2A2G2EGA2z2
A2A2c2G2A2z2 | d2d2c2G2A2z2 |
A2A2c2AGE2z2 | d2d2c2AGE2z2 |
e2e2d2e2c4g2e2 | d4c2AGA2z2 |
c4A2A2G2EGA2z2 | c2AAG2EGA4

